packages/axiom-materials/src/icon_svgs/format-underline.svg

<svg height="16" viewBox="0 0 16 16" width="16" xmlns="http://www.w3.org/2000/svg"><path d="m8 0v6.49728997c0 1.07949953-.35722462 1.93314953-1.07168459 2.56097561-.71445996.62782609-1.69055534.94173442-2.92831541.94173442-1.21864409 0-2.18637634-.304875-2.90322581-.91463415-.71684946-.60975914-1.0824372-1.44760081-1.09677419-2.51355013v-6.57181572h2.15053763v6.51084011c0 .64589302.16367818 1.11675552.49103943 1.41260162.32736126.29584611.78016437.44376694 1.35842294.44376694 1.20908609 0 1.82317792-.60071666 1.84229391-1.80216802v-6.56504065zm-8 11.5h8v1.5h-8z" fill-rule="evenodd" transform="translate(4 3)"/></svg>

<?xml version="1.0" encoding="UTF-8"?>
<svg width="16px" height="16px" viewBox="0 0 16 16" version="1.1" xmlns="http://www.w3.org/2000/svg" xmlns:xlink="http://www.w3.org/1999/xlink">
    <!-- Generator: Sketch 51.3 (57544) - http://www.bohemiancoding.com/sketch -->
    <title>format-underline</title>
    <g id="format-underline" stroke="none" stroke-width="1" fill="none" fill-rule="evenodd">
        <g transform="translate(4.000000, 3.000000)" fill="#000000">
            <path d="M8,0 L8,6.49728997 C8,7.5767895 7.64277538,8.4304395 6.92831541,9.05826558 C6.21385545,9.68609167 5.23776007,10 4,10 C2.78135591,10 1.81362366,9.695125 1.09677419,9.08536585 C0.379924731,8.47560671 0.0143369892,7.63776504 0,6.57181572 L0,0 L2.15053763,0 L2.15053763,6.51084011 C2.15053763,7.15673313 2.31421581,7.62759563 2.64157706,7.92344173 C2.96893832,8.21928784 3.42174143,8.36720867 4,8.36720867 C5.20908609,8.36720867 5.82317792,7.76649201 5.84229391,6.56504065 L5.84229391,0 L8,0 Z M0,11.5 L8,11.5 L8,13 L0,13 L0,11.5 Z"></path>
        </g>
    </g>
</svg>
